X: 1231
T: Auntie Doris's Schottische
B: australian traditional tunes wiki
M:4/4
L:1/8
R: Schottische
Q: 1/4=100
K:G
V:1 
|:"G"D>G B>A G2G2|"Em"B>d g>f "C"e2g2|"D7"f2A>Bc2B>A|1"Em"G>F "Am"A>F "D"D2D2:|2"G"G2G2G2g>f||
|:"C"e>c G>ce2f>e|"G"d>B G>Bd2c>A|"D7"D>F A>Bc2B>A|1"G"G>A B>cd2g>f:|2"G"G2G2G4||
% abcbook-tune_id 6342d53aa21256220c0afe0a


% abcbook-boost 0
% abcbook-tablature 
% abcbook-transpose 
% abcbook-lastupdated 1665324355100
% abcbook-soundfonts 
% abcbook-repeats 1
% NFF Book 2007

